flaticon/outdoor/backpack-1.svg

<svg xmlns="http://www.w3.org/2000/svg" width="32" height="32" viewBox="0 0 24 24">
    <path d="M 10.667969 10.414062 L 12.210938 11.957031 L 13.765625 10.402344 L 12.222656 8.859375 Z M 12.210938 10.828125 L 11.796875 10.414062 L 12.222656 9.988281 L 12.632812 10.402344 Z M 12.210938 10.828125"/>
    <path d="M 22.683594 10.398438 L 21.601562 10.398438 L 21.601562 6 L 22 6 C 22.222656 6 22.398438 5.820312 22.398438 5.601562 L 22.398438 3.257812 C 22.398438 2.34375 21.65625 1.601562 20.742188 1.601562 L 16 1.601562 L 16 0.894531 C 16 0.402344 15.597656 0 15.105469 0 L 8.894531 0 C 8.402344 0 8 0.402344 8 0.894531 L 8 1.601562 L 3.257812 1.601562 C 2.34375 1.601562 1.601562 2.34375 1.601562 3.257812 L 1.601562 5.601562 C 1.601562 5.820312 1.777344 6 2 6 L 2.398438 6 L 2.398438 10.398438 L 1.316406 10.398438 C 0.589844 10.398438 0 10.992188 0 11.71875 L 0 19.003906 C 0 19.992188 0.804688 20.800781 1.796875 20.800781 L 2.398438 20.800781 L 2.398438 21.199219 C 2.398438 22.609375 3.445312 23.773438 4.800781 23.96875 L 4.800781 24 L 19.199219 24 L 19.199219 23.96875 C 20.554688 23.773438 21.601562 22.609375 21.601562 21.199219 L 21.601562 20.800781 L 22.203125 20.800781 C 23.195312 20.800781 24 19.992188 24 19.003906 L 24 11.71875 C 24 10.992188 23.410156 10.398438 22.683594 10.398438 Z M 8.800781 0.894531 C 8.800781 0.84375 8.84375 0.800781 8.894531 0.800781 L 15.105469 0.800781 C 15.15625 0.800781 15.199219 0.84375 15.199219 0.894531 L 15.199219 1.601562 L 8.800781 1.601562 Z M 2.398438 3.257812 C 2.398438 2.785156 2.785156 2.398438 3.257812 2.398438 L 20.742188 2.398438 C 21.214844 2.398438 21.601562 2.785156 21.601562 3.257812 L 21.601562 5.199219 L 2.398438 5.199219 Z M 18 12.800781 L 17.199219 12.800781 L 17.199219 12 C 17.199219 11.777344 17.019531 11.601562 16.800781 11.601562 C 16.578125 11.601562 16.398438 11.777344 16.398438 12 L 16.398438 12.800781 L 15.601562 12.800781 L 15.601562 10.398438 L 18 10.398438 Z M 16 13.601562 L 17.601562 13.601562 L 17.601562 13.867188 L 16.800781 14.933594 L 16 13.867188 Z M 17.601562 9.601562 L 16 9.601562 L 16 6 L 17.601562 6 Z M 8.398438 12.800781 L 7.601562 12.800781 L 7.601562 12 C 7.601562 11.777344 7.421875 11.601562 7.199219 11.601562 C 6.980469 11.601562 6.800781 11.777344 6.800781 12 L 6.800781 12.800781 L 6 12.800781 L 6 10.398438 L 8.398438 10.398438 Z M 6.398438 13.601562 L 8 13.601562 L 8 13.867188 L 7.199219 14.933594 L 6.398438 13.867188 Z M 8 9.601562 L 6.398438 9.601562 L 6.398438 6 L 8 6 Z M 1.796875 20 C 1.246094 20 0.800781 19.554688 0.800781 19.003906 L 0.800781 11.71875 C 0.800781 11.433594 1.03125 11.199219 1.316406 11.199219 L 2.398438 11.199219 L 2.398438 20 Z M 5.601562 23.199219 L 5.601562 20.398438 L 18.398438 20.398438 L 18.398438 23.199219 Z M 18.398438 19.601562 L 5.601562 19.601562 L 5.601562 17.601562 L 18.398438 17.601562 Z M 20.800781 21.199219 C 20.800781 22.164062 20.113281 22.972656 19.199219 23.160156 L 19.199219 16.800781 L 4.800781 16.800781 L 4.800781 23.160156 C 3.886719 22.972656 3.199219 22.164062 3.199219 21.199219 L 3.199219 6 L 5.601562 6 L 5.601562 9.601562 L 5.199219 9.601562 L 5.199219 13.601562 L 5.601562 13.601562 L 5.601562 14 C 5.601562 14.085938 5.628906 14.171875 5.679688 14.238281 L 6.878906 15.839844 C 6.957031 15.941406 7.074219 16 7.199219 16 C 7.324219 16 7.445312 15.941406 7.519531 15.839844 L 8.71875 14.238281 C 8.773438 14.171875 8.800781 14.085938 8.800781 14 L 8.800781 13.601562 L 9.199219 13.601562 L 9.199219 9.601562 L 8.800781 9.601562 L 8.800781 6 L 15.199219 6 L 15.199219 9.601562 L 14.800781 9.601562 L 14.800781 13.601562 L 15.199219 13.601562 L 15.199219 14 C 15.199219 14.085938 15.226562 14.171875 15.28125 14.238281 L 16.480469 15.839844 C 16.554688 15.941406 16.675781 16 16.800781 16 C 16.925781 16 17.042969 15.941406 17.121094 15.839844 L 18.320312 14.238281 C 18.371094 14.171875 18.398438 14.085938 18.398438 14 L 18.398438 13.601562 L 18.800781 13.601562 L 18.800781 9.601562 L 18.398438 9.601562 L 18.398438 6 L 20.800781 6 Z M 23.199219 19.003906 C 23.199219 19.554688 22.753906 20 22.203125 20 L 21.601562 20 L 21.601562 11.199219 L 22.683594 11.199219 C 22.96875 11.199219 23.199219 11.433594 23.199219 11.71875 Z M 23.199219 19.003906"/>
</svg>

<svg xmlns="http://www.w3.org/2000/svg" width="32" height="32" viewBox="0 0 24 24">
    <path d="M10.668 10.414l1.543 1.543 1.555-1.555-1.543-1.543zm1.543.414l-.414-.414.426-.426.41.414zm0 0"/>
    <path d="M22.684 10.398h-1.082V6H22c.223 0 .398-.18.398-.398V3.258c0-.914-.742-1.656-1.656-1.656H16V.895A.897.897 0 0 0 15.105 0h-6.21A.897.897 0 0 0 8 .895v.707H3.258c-.914 0-1.656.742-1.656 1.656v2.344c0 .218.175.398.398.398h.398v4.398H1.316A1.32 1.32 0 0 0 0 11.718v7.286A1.8 1.8 0 0 0 1.797 20.8h.601v.398a2.803 2.803 0 0 0 2.403 2.77V24h14.398v-.031a2.803 2.803 0 0 0 2.403-2.77v-.398h.601A1.8 1.8 0 0 0 24 19.004v-7.285c0-.727-.59-1.32-1.316-1.32zM8.8.895C8.8.844 8.844.8 8.895.8h6.21c.051 0 .094.043.094.094v.707H8.801zM2.398 3.258c0-.473.387-.86.86-.86h17.484c.473 0 .86.387.86.86v1.941H2.398zM18 12.8h-.8V12a.398.398 0 0 0-.4-.398.398.398 0 0 0-.402.398v.8h-.796v-2.402H18zm-2 .8h1.602v.266l-.801 1.067L16 13.867zm1.602-4H16V6h1.602zm-9.204 3.2h-.796V12a.398.398 0 0 0-.403-.398.398.398 0 0 0-.398.398v.8H6v-2.402h2.398zm-2 .8H8v.266l-.8 1.067-.802-1.067zm1.602-4H6.398V6H8zM1.797 20a.995.995 0 0 1-.996-.996v-7.285c0-.285.23-.52.515-.52h1.082V20zm3.805 3.2v-2.802h12.796V23.2zm12.796-3.598H5.602v-2h12.796zm2.403 1.597c0 .965-.688 1.774-1.602 1.961V16.8H4.801v6.36a2.006 2.006 0 0 1-1.602-1.96V6h2.403v3.602h-.403v4h.403V14c0 .086.027.172.078.238l1.199 1.602a.398.398 0 0 0 .64 0l1.2-1.602A.375.375 0 0 0 8.8 14v-.398h.398v-4h-.398V6h6.398v3.602h-.398v4h.398V14c0 .086.028.172.082.238l1.2 1.602c.074.101.195.16.32.16a.403.403 0 0 0 .32-.16l1.2-1.602a.396.396 0 0 0 .077-.238v-.398h.403v-4h-.403V6h2.403zm2.398-2.195c0 .55-.445.996-.996.996h-.601v-8.8h1.082c.285 0 .515.234.515.519zm0 0"/>
</svg>
